source/images/bg-about.svg

<svg width="676" height="451" fill="none" xmlns="http://www.w3.org/2000/svg"><path d="M450.334.62c-105.956 0-195.119 73.997-218.603 172.929h227.145S427.72 308.074 244.332 314.854c34.701 79.417 114.029 135.172 206.002 135.172 123.754 0 224.715-100.939 224.715-224.715C675.049 101.558 574.088.62 450.334.62zM231.709 173.571H.951s32.717 141.617 228.952 141.617c4.928 0 9.679-.156 14.407-.334a223.087 223.087 0 0 1-18.712-89.542c0-17.797 2.164-35.104 6.111-51.741z" fill="#080808"/><path d="M459.902 173.393H231.664c-3.969 16.659-6.133 33.988-6.133 51.829 0 31.847 6.735 62.156 18.801 89.654 184.28-6.78 215.57-141.483 215.57-141.483z" fill="#34AA51"/></svg>

<svg width="676" height="451" viewBox="0 0 676 451" fill="none" xmlns="http://www.w3.org/2000/svg">
<path d="M450.334 0.619629C344.378 0.619629 255.215 74.6174 231.731 173.549H458.876C458.876 173.549 427.72 308.074 244.332 314.854C279.033 394.271 358.361 450.026 450.334 450.026C574.088 450.026 675.049 349.087 675.049 225.311C675.049 101.558 574.088 0.619629 450.334 0.619629Z" fill="#080808"/>
<path d="M231.709 173.571H0.951172C0.951172 173.571 33.6682 315.188 229.903 315.188C234.831 315.188 239.582 315.032 244.31 314.854C232.311 287.4 225.598 257.114 225.598 225.312C225.598 207.515 227.762 190.208 231.709 173.571Z" fill="#080808"/>
<path d="M459.902 173.393H231.664C227.695 190.052 225.531 207.381 225.531 225.222C225.531 257.069 232.266 287.378 244.332 314.876C428.612 308.096 459.902 173.393 459.902 173.393Z" fill="#34AA51"/>
</svg>
